packages/icons/src/gitops-applications-blue-circle.svg

<svg fill="none" viewBox="0 0 32 32" xmlns="http://www.w3.org/2000/svg"><circle cx="16" cy="16" fill="#00ade4" r="16"/><path clip-rule="evenodd" d="m16.6846 10.7104c0 .2418-.2086.4378-.466.4378-.2575 0-.4661-.196-.4661-.4378s.2086-.4379.4661-.4379c.2574 0 .466.1961.466.4379zm.2999 1.3492c-.0378.019-.0766.0366-.1161.0528v3.4463c.5753.2357.9775.7748.9775 1.4021 0 .8443-.7286 1.5287-1.6273 1.5287-.8988 0-1.6274-.6844-1.6274-1.5287 0-.6765.4677-1.2504 1.1159-1.4518v-3.3469c-.6482-.2014-1.1159-.7752-1.1159-1.4517 0-.84431.7286-1.52876 1.6274-1.52876.8987 0 1.6273.68445 1.6273 1.52876 0 .1839-.0345.3603-.0979.5236l1.1203 1.0524c.2256-.1111.4823-.174.7547-.174.8988 0 1.6274.6844 1.6274 1.5287 0 .8444-.7286 1.5288-1.6274 1.5288-.8987 0-1.6273-.6844-1.6273-1.5288 0-.1883.0362-.3687.1025-.5353zm5.3385 4.9137-3.2495-1.0694-.3839 1.0296 1.7631.5802-4.7235 1.7186-4.2364-1.6996 1.7855-.6004-.3914-1.0271-3.17969 1.0693c-.23089.0776-.38495.2832-.38494.5136l.00011 2.4171c.00002.4251.26294.8115.67368.99l5.47874 2.3811c.1481.0643.3181.0672.4685.0079l6.0565-2.3871c.4313-.17.712-.5666.712-1.006l-.0001-2.4031c-.0001-.2317-.1559-.4381-.3887-.5147zm-6.0238 3.2215 5.2512-1.9106.0001 1.6069-5.2513 2.0698zm-1.1613-.0135.0001 1.7466-4.6543-2.0228-.0001-1.591zm1.0807-2.7827c.2574 0 .466-.196.466-.4378 0-.2419-.2086-.4379-.466-.4379-.2575 0-.4661.196-.4661.4379 0 .2418.2086.4378.4661.4378zm3.8705-3.7575c0 .2419-.2086.4379-.4661.4379-.2574 0-.4661-.196-.4661-.4379 0-.2418.2087-.4378.4661-.4378.2575 0 .4661.196.4661.4378z" fill="#fff" fill-rule="evenodd"/></svg>

<svg viewBox="0 0 32 32" fill="none" xmlns="http://www.w3.org/2000/svg">
<circle cx="16" cy="16" r="16" fill="#00ADE4"/>
<path fill-rule="evenodd" clip-rule="evenodd" d="M16.6846 10.7104C16.6846 10.9522 16.476 11.1482 16.2186 11.1482C15.9611 11.1482 15.7525 10.9522 15.7525 10.7104C15.7525 10.4686 15.9611 10.2725 16.2186 10.2725C16.476 10.2725 16.6846 10.4686 16.6846 10.7104ZM16.9845 12.0596C16.9467 12.0786 16.9079 12.0962 16.8684 12.1124V15.5587C17.4437 15.7944 17.8459 16.3335 17.8459 16.9608C17.8459 17.8051 17.1173 18.4895 16.2186 18.4895C15.3198 18.4895 14.5912 17.8051 14.5912 16.9608C14.5912 16.2843 15.0589 15.7104 15.7071 15.509V12.1621C15.0589 11.9607 14.5912 11.3869 14.5912 10.7104C14.5912 9.86609 15.3198 9.18164 16.2186 9.18164C17.1173 9.18164 17.8459 9.86609 17.8459 10.7104C17.8459 10.8943 17.8114 11.0707 17.748 11.234L18.8683 12.2864C19.0939 12.1753 19.3506 12.1124 19.623 12.1124C20.5218 12.1124 21.2504 12.7968 21.2504 13.6411C21.2504 14.4855 20.5218 15.1699 19.623 15.1699C18.7243 15.1699 17.9957 14.4855 17.9957 13.6411C17.9957 13.4528 18.0319 13.2724 18.0982 13.1058L16.9845 12.0596ZM22.323 16.9733L19.0735 15.9039L18.6896 16.9335L20.4527 17.5137L15.7292 19.2323L11.4928 17.5327L13.2783 16.9323L12.8869 15.9052L9.70721 16.9745C9.47632 17.0521 9.32226 17.2577 9.32227 17.4881L9.32238 19.9052C9.3224 20.3303 9.58532 20.7167 9.99606 20.8952L15.4748 23.2763C15.6229 23.3406 15.7929 23.3435 15.9433 23.2842L21.9998 20.8971C22.4311 20.7271 22.7118 20.3305 22.7118 19.8911L22.7117 17.488C22.7116 17.2563 22.5558 17.0499 22.323 16.9733ZM16.2992 20.1948L21.5504 18.2842L21.5505 19.8911L16.2992 21.9609L16.2992 20.1948ZM15.1379 20.1813L15.138 21.9279L10.4837 19.9051L10.4836 18.3141L15.1379 20.1813ZM16.2186 17.3986C16.476 17.3986 16.6846 17.2026 16.6846 16.9608C16.6846 16.7189 16.476 16.5229 16.2186 16.5229C15.9611 16.5229 15.7525 16.7189 15.7525 16.9608C15.7525 17.2026 15.9611 17.3986 16.2186 17.3986ZM20.0891 13.6411C20.0891 13.883 19.8805 14.079 19.623 14.079C19.3656 14.079 19.1569 13.883 19.1569 13.6411C19.1569 13.3993 19.3656 13.2033 19.623 13.2033C19.8805 13.2033 20.0891 13.3993 20.0891 13.6411Z" fill="white"/>
</svg>
